assets/1. P-Z/Wind chime/Color/Wind.Chime-color.svg

<svg width="100%" height="100%" viewBox="0 0 32 32" fill="none" xmlns="http://www.w3.org/2000/svg">
<g filter="url(#filter0_i_18_1041)">
<path d="M13.2 21.05V21.95C13.2 23.95 13.6199 25.92 14.4299 27.74L15.0499 29.13C15.1399 29.34 15.3499 29.47 15.5799 29.47H21.0499C21.4699 29.47 21.7499 29.04 21.5799 28.66L21.17 27.73C20.36 25.91 19.9399 23.93 19.9399 21.94V21.04C19.9399 20.72 19.6799 20.46 19.3599 20.46H13.7899C13.4599 20.48 13.2 20.74 13.2 21.05Z" fill="url(#paint0_radial_18_1041)"/>
<path d="M13.2 21.05V21.95C13.2 23.95 13.6199 25.92 14.4299 27.74L15.0499 29.13C15.1399 29.34 15.3499 29.47 15.5799 29.47H21.0499C21.4699 29.47 21.7499 29.04 21.5799 28.66L21.17 27.73C20.36 25.91 19.9399 23.93 19.9399 21.94V21.04C19.9399 20.72 19.6799 20.46 19.3599 20.46H13.7899C13.4599 20.48 13.2 20.74 13.2 21.05Z" fill="url(#paint1_linear_18_1041)"/>
<path d="M13.2 21.05V21.95C13.2 23.95 13.6199 25.92 14.4299 27.74L15.0499 29.13C15.1399 29.34 15.3499 29.47 15.5799 29.47H21.0499C21.4699 29.47 21.7499 29.04 21.5799 28.66L21.17 27.73C20.36 25.91 19.9399 23.93 19.9399 21.94V21.04C19.9399 20.72 19.6799 20.46 19.3599 20.46H13.7899C13.4599 20.48 13.2 20.74 13.2 21.05Z" fill="url(#paint2_radial_18_1041)"/>
</g>
<path fill-rule="evenodd" clip-rule="evenodd" d="M16.49 1.5C16.7661 1.5 16.99 1.72386 16.99 2V20.9C16.99 21.1761 16.7661 21.4 16.49 21.4C16.2138 21.4 15.99 21.1761 15.99 20.9V2C15.99 1.72386 16.2138 1.5 16.49 1.5Z" fill="#4999DF"/>
<path fill-rule="evenodd" clip-rule="evenodd" d="M16.49 1.5C16.7661 1.5 16.99 1.72386 16.99 2V20.9C16.99 21.1761 16.7661 21.4 16.49 21.4C16.2138 21.4 15.99 21.1761 15.99 20.9V2C15.99 1.72386 16.2138 1.5 16.49 1.5Z" fill="url(#paint3_linear_18_1041)"/>
<path fill-rule="evenodd" clip-rule="evenodd" d="M16.49 1.5C16.7661 1.5 16.99 1.72386 16.99 2V20.9C16.99 21.1761 16.7661 21.4 16.49 21.4C16.2138 21.4 15.99 21.1761 15.99 20.9V2C15.99 1.72386 16.2138 1.5 16.49 1.5Z" fill="url(#paint4_radial_18_1041)"/>
<path fill-rule="evenodd" clip-rule="evenodd" d="M16.49 1.5C16.7661 1.5 16.99 1.72386 16.99 2V20.9C16.99 21.1761 16.7661 21.4 16.49 21.4C16.2138 21.4 15.99 21.1761 15.99 20.9V2C15.99 1.72386 16.2138 1.5 16.49 1.5Z" fill="url(#paint5_radial_18_1041)"/>
<g opacity="0.8" filter="url(#filter1_i_18_1041)">
<path d="M19.55 3.53999H13.44C10.44 3.53999 8 5.98 8 8.98C8 11.98 10.44 14.42 13.44 14.42H19.55C22.55 14.42 24.99 11.98 24.99 8.98C24.99 5.97 22.55 3.53999 19.55 3.53999Z" fill="url(#paint6_linear_18_1041)"/>
<path d="M19.55 3.53999H13.44C10.44 3.53999 8 5.98 8 8.98C8 11.98 10.44 14.42 13.44 14.42H19.55C22.55 14.42 24.99 11.98 24.99 8.98C24.99 5.97 22.55 3.53999 19.55 3.53999Z" fill="url(#paint7_radial_18_1041)"/>
<path d="M19.55 3.53999H13.44C10.44 3.53999 8 5.98 8 8.98C8 11.98 10.44 14.42 13.44 14.42H19.55C22.55 14.42 24.99 11.98 24.99 8.98C24.99 5.97 22.55 3.53999 19.55 3.53999Z" fill="url(#paint8_radial_18_1041)"/>
</g>
<g filter="url(#filter2_i_18_1041)">
<path d="M16.49 18.46C17.3074 18.46 17.97 17.7974 17.97 16.98C17.97 16.1626 17.3074 15.5 16.49 15.5C15.6726 15.5 15.01 16.1626 15.01 16.98C15.01 17.7974 15.6726 18.46 16.49 18.46Z" fill="url(#paint9_radial_18_1041)"/>
<path d="M16.49 18.46C17.3074 18.46 17.97 17.7974 17.97 16.98C17.97 16.1626 17.3074 15.5 16.49 15.5C15.6726 15.5 15.01 16.1626 15.01 16.98C15.01 17.7974 15.6726 18.46 16.49 18.46Z" fill="url(#paint10_radial_18_1041)"/>
</g>
<path d="M21.2601 6.19C21.0201 6.19 20.83 5.99999 20.83 5.75999V5.75C20.83 5.6 20.71 5.47 20.55 5.47C20.4 5.47 20.2701 5.59 20.2701 5.75V5.75999C20.2701 5.99999 20.0801 6.19 19.8401 6.19C19.6901 6.19 19.56 6.30999 19.55 6.45999C19.55 6.61999 19.67 6.74001 19.83 6.74001H19.8401C20.0801 6.74001 20.2701 6.93 20.2701 7.17V7.17999C20.2701 7.32999 20.39 7.45999 20.55 7.45999C20.7 7.45999 20.83 7.33999 20.83 7.17999V7.17C20.83 6.93 21.0201 6.74001 21.2601 6.74001H21.2701C21.4201 6.74001 21.55 6.60999 21.55 6.45999C21.54 6.30999 21.4101 6.19 21.2601 6.19Z" fill="#FF8585"/>
<path d="M21.2701 10.19C21.0301 10.19 20.8401 9.99999 20.8401 9.75999V9.75C20.8401 9.6 20.7201 9.47 20.5601 9.47C20.4101 9.47 20.2801 9.59 20.2801 9.75V9.75999C20.2801 9.99999 20.0901 10.19 19.8501 10.19C19.7001 10.19 19.5701 10.31 19.5601 10.46C19.5601 10.62 19.6801 10.74 19.8401 10.74H19.8501C20.0901 10.74 20.2801 10.93 20.2801 11.17V11.18C20.2801 11.33 20.4001 11.46 20.5601 11.46C20.7101 11.46 20.8401 11.34 20.8401 11.18V11.17C20.8401 10.93 21.0301 10.74 21.2701 10.74H21.2801C21.4301 10.74 21.5601 10.61 21.5601 10.46C21.5501 10.31 21.4201 10.19 21.2701 10.19Z" fill="#FF8585"/>
<path d="M23.69 8.2C23.45 8.2 23.26 8.01 23.26 7.77V7.75999C23.26 7.60999 23.14 7.48 22.98 7.48C22.83 7.48 22.7 7.59999 22.7 7.75999V7.77C22.7 8.01 22.51 8.2 22.27 8.2C22.12 8.2 21.99 8.32 21.98 8.47C21.98 8.63 22.1 8.75 22.26 8.75H22.27C22.51 8.75 22.7 8.93999 22.7 9.17999V9.19C22.7 9.34 22.82 9.47 22.98 9.47C23.13 9.47 23.26 9.35 23.26 9.19V9.17999C23.26 8.93999 23.45 8.75 23.69 8.75H23.7C23.85 8.75 23.98 8.62 23.98 8.47C23.97 8.32 23.84 8.2 23.69 8.2Z" fill="#FF8585"/>
<path d="M16.58 23.68C16.9501 23.68 17.25 23.38 17.25 23.01C17.25 22.64 16.9501 22.34 16.58 22.34C16.21 22.34 15.91 22.64 15.91 23.01C15.91 23.38 16.21 23.68 16.58 23.68Z" fill="#FF7578"/>
<path d="M17.15 25.98C17.52 25.98 17.82 25.68 17.82 25.31C17.82 24.94 17.52 24.64 17.15 24.64C16.7799 24.64 16.48 24.94 16.48 25.31C16.48 25.68 16.7799 25.98 17.15 25.98Z" fill="#FF7578"/>
<path d="M17.92 28.26C18.29 28.26 18.59 27.96 18.59 27.59C18.59 27.22 18.29 26.92 17.92 26.92C17.55 26.92 17.25 27.22 17.25 27.59C17.25 27.96 17.55 28.26 17.92 28.26Z" fill="#FF7578"/>
<defs>
<filter id="filter0_i_18_1041" x="13.2" y="20.21" width="8.68048" height="9.26001" filterUnits="userSpaceOnUse" color-interpolation-filters="sRGB">
<feFlood flood-opacity="0" result="BackgroundImageFix"/>
<feBlend mode="normal" in="SourceGraphic" in2="BackgroundImageFix" result="shape"/>
<feColorMatrix in="SourceAlpha" type="matrix" values="0 0 0 0 0 0 0 0 0 0 0 0 0 0 0 0 0 0 127 0" result="hardAlpha"/>
<feOffset dx="0.4" dy="-0.4"/>
<feGaussianBlur stdDeviation="0.125"/>
<feComposite in2="hardAlpha" operator="arithmetic" k2="-1" k3="1"/>
<feColorMatrix type="matrix" values="0 0 0 0 0.858824 0 0 0 0 0.807843 0 0 0 0 0.917647 0 0 0 1 0"/>
<feBlend mode="normal" in2="shape" result="effect1_innerShadow_18_1041"/>
</filter>
<filter id="filter1_i_18_1041" x="8" y="3.53999" width="16.99" height="10.88" filterUnits="userSpaceOnUse" color-interpolation-filters="sRGB">
<feFlood flood-opacity="0" result="BackgroundImageFix"/>
<feBlend mode="normal" in="SourceGraphic" in2="BackgroundImageFix" result="shape"/>
<feColorMatrix in="SourceAlpha" type="matrix" values="0 0 0 0 0 0 0 0 0 0 0 0 0 0 0 0 0 0 127 0" result="hardAlpha"/>
<feOffset/>
<feGaussianBlur stdDeviation="0.75"/>
<feComposite in2="hardAlpha" operator="arithmetic" k2="-1" k3="1"/>
<feColorMatrix type="matrix" values="0 0 0 0 0.481771 0 0 0 0 0.630317 0 0 0 0 0.770833 0 0 0 1 0"/>
<feBlend mode="normal" in2="shape" result="effect1_innerShadow_18_1041"/>
</filter>
<filter id="filter2_i_18_1041" x="15.01" y="15.5" width="2.95996" height="2.95999" filterUnits="userSpaceOnUse" color-interpolation-filters="sRGB">
<feFlood flood-opacity="0" result="BackgroundImageFix"/>
<feBlend mode="normal" in="SourceGraphic" in2="BackgroundImageFix" result="shape"/>
<feColorMatrix in="SourceAlpha" type="matrix" values="0 0 0 0 0 0 0 0 0 0 0 0 0 0 0 0 0 0 127 0" result="hardAlpha"/>
<feOffset/>
<feGaussianBlur stdDeviation="0.25"/>
<feComposite in2="hardAlpha" operator="arithmetic" k2="-1" k3="1"/>
<feColorMatrix type="matrix" values="0 0 0 0 0.870588 0 0 0 0 0.721569 0 0 0 0 0.356863 0 0 0 1 0"/>
<feBlend mode="normal" in2="shape" result="effect1_innerShadow_18_1041"/>
</filter>
<radialGradient id="paint0_radial_18_1041" cx="0" cy="0" r="1" gradientUnits="userSpaceOnUse" gradientTransform="translate(19.8124 23.5) rotate(180) scale(6.21875 5.81876)">
<stop stop-color="#F4EFFC"/>
<stop offset="1" stop-color="#E8E0F2"/>
</radialGradient>
<linearGradient id="paint1_linear_18_1041" x1="17.4152" y1="20.46" x2="17.4152" y2="20.9063" gradientUnits="userSpaceOnUse">
<stop stop-color="#D3D2E1"/>
<stop offset="1" stop-color="#D3D2E1" stop-opacity="0"/>
</linearGradient>
<radialGradient id="paint2_radial_18_1041" cx="0" cy="0" r="1" gradientUnits="userSpaceOnUse" gradientTransform="translate(20.9687 23.4063) rotate(-179.782) scale(8.21881 18.2767)">
<stop offset="0.839974" stop-color="#D4D0DC" stop-opacity="0"/>
<stop offset="1" stop-color="#D4D0DC"/>
</radialGradient>
<linearGradient id="paint3_linear_18_1041" x1="17.8125" y1="22.5" x2="17.8125" y2="10" gradientUnits="userSpaceOnUse">
<stop stop-color="#52D6FF"/>
<stop offset="1" stop-color="#52D6FF" stop-opacity="0"/>
</linearGradient>
<radialGradient id="paint4_radial_18_1041" cx="0" cy="0" r="1" gradientUnits="userSpaceOnUse" gradientTransform="translate(16.99 1.78125) rotate(90) scale(9 0.677506)">
<stop stop-color="#60C5FF"/>
<stop offset="1" stop-color="#60C5FF" stop-opacity="0"/>
</radialGradient>
<radialGradient id="paint5_radial_18_1041" cx="0" cy="0" r="1" gradientUnits="userSpaceOnUse" gradientTransform="translate(17.2187 19.875) rotate(-180) scale(0.728744 3.65625)">
<stop stop-color="#70E6FF"/>
<stop offset="1" stop-color="#70E6FF" stop-opacity="0"/>
</radialGradient>
<linearGradient id="paint6_linear_18_1041" x1="23.6875" y1="7.625" x2="8.3125" y2="7.625" gradientUnits="userSpaceOnUse">
<stop stop-color="#94CBFF"/>
<stop offset="1" stop-color="#8CC5FD"/>
</linearGradient>
<radialGradient id="paint7_radial_18_1041" cx="0" cy="0" r="1" gradientUnits="userSpaceOnUse" gradientTransform="translate(22.5625 7.5625) rotate(150.255) scale(3.52724 3.27187)">
<stop stop-color="#CEF8FF"/>
<stop offset="1" stop-color="#CEF8FF" stop-opacity="0"/>
</radialGradient>
<radialGradient id="paint8_radial_18_1041" cx="0" cy="0" r="1" gradientUnits="userSpaceOnUse" gradientTransform="translate(7.6875 13.625) rotate(-32.9052) scale(7.59317 4.72876)">
<stop stop-color="#CEF8FF"/>
<stop offset="1" stop-color="#CEF8FF" stop-opacity="0"/>
</radialGradient>
<radialGradient id="paint9_radial_18_1041" cx="0" cy="0" r="1" gradientUnits="userSpaceOnUse" gradientTransform="translate(17.7813 16.3125) rotate(145.923) scale(2.56555 2.8183)">
<stop stop-color="#FFF366"/>
<stop offset="1" stop-color="#EFBE44"/>
</radialGradient>
<radialGradient id="paint10_radial_18_1041" cx="0" cy="0" r="1" gradientUnits="userSpaceOnUse" gradientTransform="translate(15.01 16.98) rotate(78.4683) scale(1.20049 1.14795)">
<stop stop-color="#FFD561"/>
<stop offset="1" stop-color="#FFD561" stop-opacity="0"/>
</radialGradient>
</defs>
</svg>

<svg width="100%" height="100%" viewBox="0 0 32 32" xmlns="http://www.w3.org/2000/svg"><g filter="url(#a)"><path fill="url(#b)" d="M13.2 21.05v.9c0 2 .42 3.97 1.23 5.79l.62 1.39c.09.21.3.34.53.34h5.47c.42 0 .7-.43.53-.81l-.41-.93c-.81-1.82-1.23-3.8-1.23-5.79v-.9a.58.58 0 0 0-.58-.58h-5.57c-.33.02-.59.28-.59.59"/><path fill="url(#c)" d="M13.2 21.05v.9c0 2 .42 3.97 1.23 5.79l.62 1.39c.09.21.3.34.53.34h5.47c.42 0 .7-.43.53-.81l-.41-.93c-.81-1.82-1.23-3.8-1.23-5.79v-.9a.58.58 0 0 0-.58-.58h-5.57c-.33.02-.59.28-.59.59"/><path fill="url(#d)" d="M13.2 21.05v.9c0 2 .42 3.97 1.23 5.79l.62 1.39c.09.21.3.34.53.34h5.47c.42 0 .7-.43.53-.81l-.41-.93c-.81-1.82-1.23-3.8-1.23-5.79v-.9a.58.58 0 0 0-.58-.58h-5.57c-.33.02-.59.28-.59.59"/></g><path fill="#4999DF" fill-rule="evenodd" d="M16.49 1.5a.5.5 0 0 1 .5.5v18.9a.5.5 0 0 1-1 0V2a.5.5 0 0 1 .5-.5" clip-rule="evenodd"/><path fill="url(#e)" fill-rule="evenodd" d="M16.49 1.5a.5.5 0 0 1 .5.5v18.9a.5.5 0 0 1-1 0V2a.5.5 0 0 1 .5-.5" clip-rule="evenodd"/><path fill="url(#f)" fill-rule="evenodd" d="M16.49 1.5a.5.5 0 0 1 .5.5v18.9a.5.5 0 0 1-1 0V2a.5.5 0 0 1 .5-.5" clip-rule="evenodd"/><path fill="url(#g)" fill-rule="evenodd" d="M16.49 1.5a.5.5 0 0 1 .5.5v18.9a.5.5 0 0 1-1 0V2a.5.5 0 0 1 .5-.5" clip-rule="evenodd"/><g filter="url(#h)" opacity=".8"><path fill="url(#i)" d="M19.55 3.54h-6.11c-3 0-5.44 2.44-5.44 5.44s2.44 5.44 5.44 5.44h6.11a5.44 5.44 0 1 0 0-10.88"/><path fill="url(#j)" d="M19.55 3.54h-6.11c-3 0-5.44 2.44-5.44 5.44s2.44 5.44 5.44 5.44h6.11a5.44 5.44 0 1 0 0-10.88"/><path fill="url(#k)" d="M19.55 3.54h-6.11c-3 0-5.44 2.44-5.44 5.44s2.44 5.44 5.44 5.44h6.11a5.44 5.44 0 1 0 0-10.88"/></g><g filter="url(#l)"><path fill="url(#m)" d="M16.49 18.46a1.48 1.48 0 1 0 0-2.96 1.48 1.48 0 0 0 0 2.96"/><path fill="url(#n)" d="M16.49 18.46a1.48 1.48 0 1 0 0-2.96 1.48 1.48 0 0 0 0 2.96"/></g><path fill="#FF8585" d="M21.26 6.19c-.24 0-.43-.19-.43-.43v-.01a.28.28 0 1 0-.56 0v.01c0 .24-.19.43-.43.43-.15 0-.28.12-.29.27 0 .16.12.28.28.28h.01c.24 0 .43.19.43.43v.01a.28.28 0 1 0 .56 0v-.01c0-.24.19-.43.43-.43h.01c.15 0 .28-.13.28-.28a.293.293 0 0 0-.29-.27M21.27 10.19c-.24 0-.43-.19-.43-.43v-.01a.28.28 0 1 0-.56 0v.01c0 .24-.19.43-.43.43-.15 0-.28.12-.29.27 0 .16.12.28.28.28h.01c.24 0 .43.19.43.43v.01a.28.28 0 1 0 .56 0v-.01c0-.24.19-.43.43-.43h.01c.15 0 .28-.13.28-.28a.294.294 0 0 0-.29-.27M23.69 8.2c-.24 0-.43-.19-.43-.43v-.01a.28.28 0 1 0-.56 0v.01c0 .24-.19.43-.43.43-.15 0-.28.12-.29.27 0 .16.12.28.28.28h.01c.24 0 .43.19.43.43v.01a.28.28 0 1 0 .56 0v-.01c0-.24.19-.43.43-.43h.01c.15 0 .28-.13.28-.28a.294.294 0 0 0-.29-.27"/><path fill="#FF7578" d="M16.58 23.68a.67.67 0 1 0 0-1.34.67.67 0 0 0 0 1.34M17.15 25.98a.67.67 0 1 0 0-1.34.67.67 0 0 0 0 1.34M17.92 28.26a.67.67 0 1 0 0-1.34.67.67 0 0 0 0 1.34"/><defs><radialGradient id="b" cx="0" cy="0" r="1" gradientTransform="matrix(-6.21875 0 0 -5.81876 19.812 23.5)" gradientUnits="userSpaceOnUse"><stop stop-color="#F4EFFC"/><stop offset="1" stop-color="#E8E0F2"/></radialGradient><radialGradient id="d" cx="0" cy="0" r="1" gradientTransform="matrix(-8.21875 -.03127 .06954 -18.27657 20.969 23.406)" gradientUnits="userSpaceOnUse"><stop offset=".84" stop-color="#D4D0DC" stop-opacity="0"/><stop offset="1" stop-color="#D4D0DC"/></radialGradient><radialGradient id="f" cx="0" cy="0" r="1" gradientTransform="matrix(0 9 -.6775 0 16.99 1.781)" gradientUnits="userSpaceOnUse"><stop stop-color="#60C5FF"/><stop offset="1" stop-color="#60C5FF" stop-opacity="0"/></radialGradient><radialGradient id="g" cx="0" cy="0" r="1" gradientTransform="matrix(-.72874 0 0 -3.65625 17.219 19.875)" gradientUnits="userSpaceOnUse"><stop stop-color="#70E6FF"/><stop offset="1" stop-color="#70E6FF" stop-opacity="0"/></radialGradient><radialGradient id="j" cx="0" cy="0" r="1" gradientTransform="rotate(150.255 10.277 6.777)scale(3.52724 3.27187)" gradientUnits="userSpaceOnUse"><stop stop-color="#CEF8FF"/><stop offset="1" stop-color="#CEF8FF" stop-opacity="0"/></radialGradient><radialGradient id="k" cx="0" cy="0" r="1" gradientTransform="matrix(6.375 -4.125 2.5689 3.97013 7.688 13.625)" gradientUnits="userSpaceOnUse"><stop stop-color="#CEF8FF"/><stop offset="1" stop-color="#CEF8FF" stop-opacity="0"/></radialGradient><radialGradient id="m" cx="0" cy="0" r="1" gradientTransform="matrix(-2.125 1.4375 -1.57911 -2.33436 17.781 16.313)" gradientUnits="userSpaceOnUse"><stop stop-color="#FFF366"/><stop offset="1" stop-color="#EFBE44"/></radialGradient><radialGradient id="n" cx="0" cy="0" r="1" gradientTransform="matrix(.23999 1.17626 -1.12478 .22949 15.01 16.98)" gradientUnits="userSpaceOnUse"><stop stop-color="#FFD561"/><stop offset="1" stop-color="#FFD561" stop-opacity="0"/></radialGradient><linearGradient id="c" x1="17.415" x2="17.415" y1="20.46" y2="20.906" gradientUnits="userSpaceOnUse"><stop stop-color="#D3D2E1"/><stop offset="1" stop-color="#D3D2E1" stop-opacity="0"/></linearGradient><linearGradient id="e" x1="17.813" x2="17.813" y1="22.5" y2="10" gradientUnits="userSpaceOnUse"><stop stop-color="#52D6FF"/><stop offset="1" stop-color="#52D6FF" stop-opacity="0"/></linearGradient><linearGradient id="i" x1="23.688" x2="8.313" y1="7.625" y2="7.625" gradientUnits="userSpaceOnUse"><stop stop-color="#94CBFF"/><stop offset="1" stop-color="#8CC5FD"/></linearGradient><filter id="a" width="8.68" height="9.26" x="13.2" y="20.21" color-interpolation-filters="sRGB" filterUnits="userSpaceOnUse"><feFlood flood-opacity="0" result="BackgroundImageFix"/><feBlend in="SourceGraphic" in2="BackgroundImageFix" result="shape"/><feColorMatrix in="SourceAlpha" result="hardAlpha" values="0 0 0 0 0 0 0 0 0 0 0 0 0 0 0 0 0 0 127 0"/><feOffset dx=".4" dy="-.4"/><feGaussianBlur stdDeviation=".125"/><feComposite in2="hardAlpha" k2="-1" k3="1" operator="arithmetic"/><feColorMatrix values="0 0 0 0 0.858824 0 0 0 0 0.807843 0 0 0 0 0.917647 0 0 0 1 0"/><feBlend in2="shape" result="effect1_innerShadow_18_1041"/></filter><filter id="h" width="16.99" height="10.88" x="8" y="3.54" color-interpolation-filters="sRGB" filterUnits="userSpaceOnUse"><feFlood flood-opacity="0" result="BackgroundImageFix"/><feBlend in="SourceGraphic" in2="BackgroundImageFix" result="shape"/><feColorMatrix in="SourceAlpha" result="hardAlpha" values="0 0 0 0 0 0 0 0 0 0 0 0 0 0 0 0 0 0 127 0"/><feOffset/><feGaussianBlur stdDeviation=".75"/><feComposite in2="hardAlpha" k2="-1" k3="1" operator="arithmetic"/><feColorMatrix values="0 0 0 0 0.481771 0 0 0 0 0.630317 0 0 0 0 0.770833 0 0 0 1 0"/><feBlend in2="shape" result="effect1_innerShadow_18_1041"/></filter><filter id="l" width="2.96" height="2.96" x="15.01" y="15.5" color-interpolation-filters="sRGB" filterUnits="userSpaceOnUse"><feFlood flood-opacity="0" result="BackgroundImageFix"/><feBlend in="SourceGraphic" in2="BackgroundImageFix" result="shape"/><feColorMatrix in="SourceAlpha" result="hardAlpha" values="0 0 0 0 0 0 0 0 0 0 0 0 0 0 0 0 0 0 127 0"/><feOffset/><feGaussianBlur stdDeviation=".25"/><feComposite in2="hardAlpha" k2="-1" k3="1" operator="arithmetic"/><feColorMatrix values="0 0 0 0 0.870588 0 0 0 0 0.721569 0 0 0 0 0.356863 0 0 0 1 0"/><feBlend in2="shape" result="effect1_innerShadow_18_1041"/></filter></defs></svg>
